X: 13
T: This Is My Love, Do You Like Her?
R: jig
M: 6/8
L: 1/8
K: Ador
|: A3 AGE | c3 d3 | e3 edB | g3 e2 g |
age g2 e | dBG GAB | cBA BAG | A3 A3 :|
|: a3 age | g3 ged | e2 a aga | ged e2 g |
age g2 e | dBG GAB | cBA BAG | A3 A3 :|


Tune 6	Setting 12360

